svgs/duotone/table-tree.svg

<svg xmlns="http://www.w3.org/2000/svg" viewBox="0 0 512 512"><!--! Font Awesome Pro 6.4.2 by @fontawesome - https://fontawesome.com License - https://fontawesome.com/license (Commercial License) Copyright 2023 Fonticons, Inc. --><path class="fa-primary" style="fill:var(--fa-primary-color,inherit);opacity:var(--fa-primary-opacity,1);" d="M64 32C28.7 32 0 60.7 0 96V416c0 35.3 28.7 64 64 64H448c35.3 0 64-28.7 64-64V96c0-35.3-28.7-64-64-64H64zM448 160V416H64V160H448z"/><path class="fa-secondary" style="fill:var(--fa-secondary-color,inherit);opacity:var(--fa-secondary-opacity,.4);" d="M144 368c-26.5 0-48-21.5-48-48V224 160h32v64c0 8.8 7.2 16 16 16h32c8.8 0 16 7.2 16 16s-7.2 16-16 16H144c-5.6 0-11-1-16-2.7V320c0 8.8 7.2 16 16 16h96c8.8 0 16 7.2 16 16s-7.2 16-16 16H144zm96-144H400c8.8 0 16 7.2 16 16v32c0 8.8-7.2 16-16 16H240c-8.8 0-16-7.2-16-16V240c0-8.8 7.2-16 16-16zm64 96h96c8.8 0 16 7.2 16 16v32c0 8.8-7.2 16-16 16H304c-8.8 0-16-7.2-16-16V336c0-8.8 7.2-16 16-16z"/></svg>

<svg xmlns="http://www.w3.org/2000/svg" viewBox="0 0 512 512"><!--! Font Awesome Pro 6.1.1 by @fontawesome - https://fontawesome.com License - https://fontawesome.com/license (Commercial License) Copyright 2022 Fonticons, Inc. --><defs><style>.fa-secondary{opacity:.4}</style></defs><path class="fa-primary" d="M448 32C483.3 32 512 60.65 512 96V416C512 451.3 483.3 480 448 480H64C28.65 480 0 451.3 0 416V96C0 60.65 28.65 32 64 32H448zM448 160H64V416H448V160z"/><path class="fa-secondary" d="M144 368C117.5 368 96 346.5 96 320V160H128V224C128 232.8 135.2 240 144 240H176C184.8 240 192 247.2 192 256C192 264.8 184.8 272 176 272H144C138.4 272 133 271 128 269.3V320C128 328.8 135.2 336 144 336H240C248.8 336 256 343.2 256 352C256 360.8 248.8 368 240 368H144zM400 224C408.8 224 416 231.2 416 240V272C416 280.8 408.8 288 400 288H240C231.2 288 224 280.8 224 272V240C224 231.2 231.2 224 240 224H400zM400 320C408.8 320 416 327.2 416 336V368C416 376.8 408.8 384 400 384H304C295.2 384 288 376.8 288 368V336C288 327.2 295.2 320 304 320H400z"/></svg>
